X: 262
T: Paddies Evermore
B: O'Neill's 262
N: "With spirit"
N: "Collected by F.O'Neill"
Z: 1997 by John Chambers <jc@trillian.mit.edu>
M: 6/8
L: 1/8
K:D
(A/G/) \
| FA2 d2f | e2c A2G | (F2A) d2d | d3 z2g \
| {g}f2e f2g | a2f d2f | e2d c2B | A3 z2g |
| {g}f2e f2g | a2f d2f | e2c A2F | G3 z2A \
| B2B Bcd | e2c A2G | (FA2) d2d | d3 z2g |
| f2e f2g | a2f d2f | e2c A2F | G3 z2A \
| B2B Hg2f | e2c A2G | (FA2) d2d | d3 z2g ||


